Newaita-dark/emblems/48/vcs-conflicting.svg

<svg height="48" viewBox="0 0 48 48" width="48" xmlns="http://www.w3.org/2000/svg"><path d="m418.62669-121.633916c-8.290875-8.290875-21.622935-8.290875-29.91381 0l-134.695471 134.695471-134.737133-134.695471c-8.290875-8.290875-21.622935-8.290875-29.91381 0s-8.290875 21.622935 0 29.91381l134.69547 134.737133-134.69547 134.695471c-8.290875 8.290875-8.290875 21.622935 0 29.91381s21.622935 8.290875 29.91381 0l134.737133-134.695471 134.695471 134.695471c8.290875 8.290875 21.622935 8.290875 29.91381 0s8.290875-21.622935 0-29.91381l-134.695471-134.695471 134.695471-134.737133c8.290875-8.290875 8.290875-21.622935 0-29.91381zm0 0" fill="#ef5350" stroke="#f44336" stroke-linecap="round" stroke-linejoin="round" stroke-width="82" transform="matrix(.093759 0 0 .093759 0 20.158175)"/><path d="m39.25 8.753906c-.777344-.777344-2.027344-.777344-2.804688 0l-12.628906 12.628906-12.632812-12.628906c-.777344-.777344-2.027344-.777344-2.804688 0s-.777344 2.027344 0 2.804688l12.628906 12.632812-12.628906 12.628906c-.777344.777344-.777344 2.027344 0 2.804688s2.027344.777344 2.804688 0l12.632812-12.628906 12.628906 12.628906c.777344.777344 2.027344.777344 2.804688 0s.777344-2.027344 0-2.804688l-12.628906-12.628906 12.628906-12.632812c.777344-.777344.777344-2.027344 0-2.804688zm0 0" fill="#fafafa"/></svg>

<?xml version="1.0" encoding="UTF-8"?>
<svg xmlns="http://www.w3.org/2000/svg" xmlns:xlink="http://www.w3.org/1999/xlink" width="48px" height="48px" viewBox="0 0 48 48" version="1.1">
<g id="surface1">
<path style="fill-rule:nonzero;fill:rgb(93.725491%,32.549021%,31.37255%);fill-opacity:1;stroke-width:82;stroke-linecap:round;stroke-linejoin:round;stroke:rgb(95.686275%,26.274511%,21.176471%);stroke-opacity:1;stroke-miterlimit:4;" d="M 418.62669 -121.633916 C 410.335815 -129.924791 397.003755 -129.924791 388.71288 -121.633916 L 254.017409 13.061555 L 119.280276 -121.633916 C 110.989401 -129.924791 97.657341 -129.924791 89.366466 -121.633916 C 81.075591 -113.343041 81.075591 -100.010981 89.366466 -91.720106 L 224.061936 43.017027 L 89.366466 177.712498 C 81.075591 186.003373 81.075591 199.335433 89.366466 207.626308 C 97.657341 215.917183 110.989401 215.917183 119.280276 207.626308 L 254.017409 72.930837 L 388.71288 207.626308 C 397.003755 215.917183 410.335815 215.917183 418.62669 207.626308 C 426.917565 199.335433 426.917565 186.003373 418.62669 177.712498 L 283.931219 43.017027 L 418.62669 -91.720106 C 426.917565 -100.010981 426.917565 -113.343041 418.62669 -121.633916 Z M 418.62669 -121.633916 " transform="matrix(0.093759,0,0,0.093759,0,20.158175)"/>
<path style=" stroke:none;fill-rule:nonzero;fill:rgb(98.039216%,98.039216%,98.039216%);fill-opacity:1;" d="M 39.25 8.753906 C 38.472656 7.976562 37.222656 7.976562 36.445312 8.753906 L 23.816406 21.382812 L 11.183594 8.753906 C 10.40625 7.976562 9.15625 7.976562 8.378906 8.753906 C 7.601562 9.53125 7.601562 10.78125 8.378906 11.558594 L 21.007812 24.191406 L 8.378906 36.820312 C 7.601562 37.597656 7.601562 38.847656 8.378906 39.625 C 9.15625 40.402344 10.40625 40.402344 11.183594 39.625 L 23.816406 26.996094 L 36.445312 39.625 C 37.222656 40.402344 38.472656 40.402344 39.25 39.625 C 40.027344 38.847656 40.027344 37.597656 39.25 36.820312 L 26.621094 24.191406 L 39.25 11.558594 C 40.027344 10.78125 40.027344 9.53125 39.25 8.753906 Z M 39.25 8.753906 "/>
</g>
</svg>
